X:1
T:Title
%%score { ( 1 4 ) | ( 2 3 ) }
L:1/8
M:4/4
K:Ab
V:1 treble nm="Grand Piano"
V:4 treble 
V:2 bass 
V:3 bass 
V:1
 z4 z2[Q:1/4=100] EF | [CE]2 [CE]F [CE]2 [CE]F | [CE]2 .[A,C]2 [EA]2 [CA]B | %3
 [Ec]2 [Fd]c [=DB]2 [A,DF]2 | B6 z2 | [Bd]2 [ce]d [Ac]2 [EB]A | [DG]2 [DA]B E2 [FA][Fd] | %7
 [Ec]2 [DB]A [DE]2 [B,DG][DB] |[M:3/4] [CA]6 |[M:1/4] z2 |[M:4/4] e2 c2 A2 c2 | %11
 z2 [Ac][Ac] [Ac]2 E2 | F2 GA [FB]2 [FA][FB] |[M:9/8] c2- [=Ec]- [Ec] [_Ed]2- [Ed][DE]F | %14
[M:4/4] [CE]2 .[A,C]2 [EA]2 [_Gc]c |[M:9/8] [FB]2 [FB] [Fc] [Fd]2- [Fd][Ec][EB] | %16
[M:4/4] [EAe]2 [CA][Fd] [Ec]3 [EB] |[M:3/4] [CEA]6 |] %18
V:2
 z4 z2 CC | z2 [E,A,]2 z2 [E,A,]2 | A,,2 z E C,2 z D | z2 [E,A,C]2 z4 | %4
 E,,2 [E,A,D]2 [E,G,D]2[K:treble] GA | z2 [E,G,D]2[K:treble][K:bass] z2 [E,A,C]2 | %6
 z2 [E,G,B,]2 z4 | z2 [E,A,]2 z4 |[M:3/4] [A,,A,]2 E,2 A,,2 |[M:1/4][K:treble] c2 | %10
[M:4/4][K:bass] A,,2 [E,A,C]2 E,,2 [E,A,C]2 | A,,2 [E,A,C][E,A,C] [E,A,C]2 C,2 | %12
 D,2 [F,A,D]2 D,,2 [D,F,][D,F,] |[M:9/8] [C,G,]2 [C,G,]- [C,G,] [B,,G,]2- [B,,G,] z D | %14
[M:4/4] A,,2 z E C,2 z _G |[M:9/8] [D,,D,]2 [D,A,] [C,=A,] [B,,B,]2- [B,,B,][E,G,][D,G,] | %16
[M:4/4] [C,A,]2 [F,A,][B,,A,] [E,A,]3 [E,G,D] |[M:3/4] [A,,A,]2 E,2 A,,2 |] %18
V:3
 x8 | A,,2 z C E,,2 z C | z2 E,2 z2 [E,A,]2 | A,,2 z E F,,2 B,,2 | x6[K:treble] x2 | %5
 G,,2 z[K:treble] B[K:bass] A,,2 z E | B,,2 z D C,2 D,B,, | E,,2 z C E,,2 E,[E,G,] |[M:3/4] x6 | %9
[M:1/4][K:treble] x2 |[M:4/4][K:bass] x8 | x8 | x8 |[M:9/8] z3 z3 z [E,G,]2 | %14
[M:4/4] z2 E,2 z2 A,,2 |[M:9/8] x9 |[M:4/4] x8 |[M:3/4] x6 |] %18
V:4
 x8 | x8 | x8 | x8 | z2 F2 E2 Bc | x8 | x8 | x8 |[M:3/4] x6 |[M:1/4] x2 |[M:4/4] x8 | E6 z2 | x8 | %13
[M:9/8] .=E3 z3 z3 |[M:4/4] x8 |[M:9/8] x9 |[M:4/4] x8 |[M:3/4] x6 |] %18

